X:72
T:Happy Feet
C:Jack Bowers
N:
L:1/8
Q:1/4=225
M:4/4
K:C
z4 ze f^f |: "C"ge cA "G7"GB df | "C"ec z"G7"d zd cA | "C"Gc z"Am7"c E2 ^D2 | 
"Dm7"DF AB "G7"de fa | "C"ge cA "G7"GB df | "C"ec A^G "G7"=G2 D^D | "Ab"^dc ^G=G "G7"F^G B=d | 
|1 c4 "G7"G4 :|2 c4 "G7"_B4 |: "F7"C2 ^D2 G2 c2 | d^d =dc d^d =dc | "Cm7"G^D z=D C3^F | 
"Ab7"^F8 | "F7"C2 ^D2 G2 c2 | d^d =dc g^d =dc | "Emaj7"b^g e^c "Ebmaj7"_b=g ^d=c | 
"Dmaj7"a^f dB "Dbmaj7"^g=f ^c_B :| c8 | 


